creators/img/apple.svg

<svg width="33" height="33" viewBox="0 0 33 33" fill="none" xmlns="http://www.w3.org/2000/svg">
<path d="M0 16.5C0 7.3873 7.3873 0 16.5 0C25.6127 0 33 7.3873 33 16.5C33 25.6127 25.6127 33 16.5 33C7.3873 33 0 25.6127 0 16.5Z" fill="white"/>
<path fill-rule="evenodd" clip-rule="evenodd" d="M20.1209 5.22656C20.2937 6.39987 19.8161 7.54932 19.1861 8.36257C18.5121 9.23488 17.3503 9.90956 16.2247 9.87435C16.0192 8.75102 16.5453 7.59362 17.1855 6.81558C17.8877 5.9569 19.0913 5.29812 20.1209 5.22656ZM23.5024 21.7414C24.0827 20.852 24.2995 20.4034 24.75 19.3993C21.4736 18.1533 20.9486 13.4953 24.1911 11.7075C23.2021 10.4672 21.8123 9.74823 20.5004 9.74823C19.5551 9.74823 18.9074 9.99492 18.3186 10.2192C17.8279 10.4061 17.3781 10.5774 16.831 10.5774C16.2399 10.5774 15.7163 10.3897 15.1682 10.1931C14.5658 9.97716 13.9337 9.75051 13.1493 9.75051C11.677 9.75051 10.11 10.6501 9.11642 12.188C7.71981 14.354 7.95804 18.4259 10.2229 21.8947C11.0324 23.1362 12.114 24.531 13.5286 24.5435C14.1156 24.5493 14.5062 24.3741 14.9289 24.1845C15.4128 23.9675 15.9386 23.7317 16.8491 23.7268C17.7649 23.7213 18.2825 23.96 18.7599 24.1802C19.1717 24.3702 19.5537 24.5464 20.1357 24.5401C21.5515 24.5287 22.6929 22.9828 23.5024 21.7414Z" fill="#0B0B0A"/>
</svg>

<svg width="33" height="33" fill="none" xmlns="http://www.w3.org/2000/svg"><path d="M0 16.5C0 7.387 7.387 0 16.5 0S33 7.387 33 16.5 25.613 33 16.5 33 0 25.613 0 16.5z" fill="#fff"/><path fill-rule="evenodd" clip-rule="evenodd" d="M20.12 5.227c.174 1.173-.304 2.322-.934 3.136-.674.872-1.836 1.547-2.961 1.511-.206-1.123.32-2.28.96-3.058.703-.86 1.906-1.518 2.936-1.59zm3.382 16.514c.58-.889.797-1.338 1.248-2.342-3.276-1.246-3.801-5.904-.559-7.692-.989-1.24-2.379-1.959-3.69-1.959-.946 0-1.594.247-2.182.471-.491.187-.94.358-1.488.358-.591 0-1.115-.187-1.663-.384-.602-.216-1.234-.442-2.019-.442-1.472 0-3.039.9-4.033 2.437-1.396 2.166-1.158 6.238 1.107 9.707.81 1.241 1.891 2.636 3.306 2.649.587.005.977-.17 1.4-.36.484-.216 1.01-.452 1.92-.457.916-.006 1.433.233 1.91.453.413.19.795.366 1.377.36 1.416-.011 2.557-1.557 3.366-2.799z" fill="#0B0B0A"/></svg>
